icons/badge/slash/circle.svg

<svg width="32" height="32" viewBox="0 0 32 32" xmlns="http://www.w3.org/2000/svg"><path fill-rule="evenodd" clip-rule="evenodd" d="M3.99988 16C3.99988 9.37261 9.37246 4.00003 15.9999 4.00003C22.6273 4.00003 27.9999 9.37261 27.9999 16C27.9999 22.6274 22.6273 28 15.9999 28C9.37246 28 3.99988 22.6274 3.99988 16ZM15.9999 2.00003C8.26789 2.00003 1.99988 8.26804 1.99988 16C1.99988 23.732 8.26789 30 15.9999 30C23.7319 30 29.9999 23.732 29.9999 16C29.9999 8.26804 23.7319 2.00003 15.9999 2.00003ZM20.2929 10.2929L10.2929 20.2929L11.7071 21.7071L21.7071 11.7071L20.2929 10.2929Z"/></svg>

<svg viewBox="0 0 32 32" xmlns="http://www.w3.org/2000/svg"><path fill-rule="evenodd" d="M4 16C4 9.373 9.372 4 16 4c6.627 0 12 5.373 12 12s-5.373 12-12 12C9.372 28 4 22.627 4 16zM16 2C8.268 2 2 8.268 2 16s6.268 14 14 14 14-6.268 14-14S23.732 2 16 2zm4.293 8.293l-10 10 1.414 1.414 10-10-1.414-1.414z"/></svg>
